X:29
T:Drops of Brandy. VWMLa.029
%%VWML:Anon2-3049-p18-0
F:http://www.vwml.org/record/Anon2/3049/p18
S:Anon. MS, late 18thC, Vaughan Williams Mem. Library
O:England;Yorkshire
Z:vmp/efdss.Simon Wilson. Reviewed PJH 2008.
M:9/8
L:1/8
Q:3/8=120
K:D
GAB BAB BAB|GAB BABd2g|\
GAB BAB BAB|FGA ABG F2D:|
|:GBd gdB gdB|GBd gdBd2g|\
GBd gdB gdB|A2A ABG F2D:|
T:Chamberlain Election. VWMLa.030
R:Jig
S:Anon. MS, late 18thC, Vaughan Williams Mem. Library
N:cf The Matelot. PJH.
O:England;Yorkshire
Z:vmp/efdss.Simon Wilson. Reviewed PJH 2008.
M:6/8
L:1/8
Q:3/8=120
K:D
E|FED FED|A2A A2A|Bcd AGF|E2E E2D|\
FED FED|A2A A2A|Bcd edc|dAF D2:|
|:f|fdf fdf|[c2e2][ce] [c2e2]A|Bcd AGF|E2E E2e|\
fdf fdf|[c2e2][ce] [c2e2]A|Bcd edc|d3 d2:|
